X: 1
T: the Tenpenny Bit
O: Trad
R: jig
Z: 1997 by John Chambers <jc:trillian.mit.edu>
N:
M: 6/8
L: 1/8
K: ADor
|: e \
| "Am"eAA eAA | "G"BAB GBd | "Am"eAA eAA | "G"def gfg \
| "Am"eAA eAA | "G"BAB GBd | edB gBB | BAG "Am"A2 :|
|: B \
| "A"A2a aga | "G"bge dBG | "A"A2a aga | "G"bge g2d \
| "A"e2a aga | "G"bge dBd | edB gBB | BAG "Am"A2 :|
